X: 425
T: Buai yinzi buai qian
L: 1/8
M: 2/4
K: Bb
f b/ g/ f f [I:setbarnb 1]| 
b c' f' c' | 
f g f f/ d/ | 
c4 | 
f b/ g/ f f | 
b c' f' c' | 
f' g f f/ d/ | 
f4 |]

@@@ Tune index: 9299
